**kern	**kern	**kern
*staff3	*staff2	*staff1
*tb16	*tb16	*tb16
=1-	=1-	=1-
*clefF4	*clefG2	*clefG2
*k[b-e-]	*k[b-e-]	*k[b-e-]
*M4/4	*M4/4	*M4/4
2GG/	2r	1r
4G\	4r	.
4r	8.bn/ 8.dd/ 8.ff/	.
.	16cc\JJ 16ee-\JJ	.
=2	=2	=2
4r	4cc\ 4ee-\	1r
4G\	4r	.
4GG/	4r	.
4r	8.e-/L 8.f#/L 8.cc/L	.
.	16d/JJ 16g/JJ 16bn/JJ	.
=3	=3	=3
4GG/ 4G/	4d/ 4g/ 4bn/	2r
4GG/ 4G/	4Bn/ 4d/ 4g/	.
4r	4r	4r
4C\ 4G\	4c/ 4e-/ 4g/	4g/
=4	=4	=4
2GG/ 2G/	2B-/ 2d/ 2g/	4.g/
.	.	8a/
4r	4r	4b-\
4C\ 4G\	4c/ 4e-/ 4g/	4g/
=5	=5	=5
!!linebreak:original
2GG/ 2G/	2B-/ 2d/ 2g/	4.g/
.	.	8a/
4r	4r	4b-\
4BB-/	4d/ 4g/	4g/
=6	=6	=6
4C/	4e-/ 4a/	4a/
4D\	4f/ 4b-/	4b-\
4E-\	4e-/ 4g/	4cc\
4F\	4e-/ 4f/	8a/L
.	.	8b-/J
=7	=7	=7
2BB-/	2d/ 2f/	4b-\
.	.	4r
4r	4r	4r
4E-\ 4B-\	4e-/ 4g/	4b-\
=8	=8	=8
2BB-\ 2B-\	2d/ 2f/	4.b-\
.	.	8cc\
4r	4r	4dd\
4E-\ 4B-\	4e-/ 4g/	4b-\
=9	=9	=9
2BB-\ 2B-\	2d/ 2f/	4.b-\
.	.	8cc\
4r	4r	4dd\
4C/	4e-/ 4a/	4cc\
=10	=10	=10
!!linebreak:original
4D\	4d/ 4g/	4b-\
4r	4r	8cc\L
.	.	8b-\J
4D\	4c/ 4f#/	4a/
4r	4r	8b-/L
.	.	8a/J
=11	=11	=11
2GG/	2B-/ 2g/	4g/
.	.	4r
4G\	4r	2r
4r	8.bn/ 8.dd/ 8.ff/	.
.	16cc\JJ 16ee-\JJ	.
=12	=12	=12
4r	4cc\ 4ee-\	1r
4G\	4r	.
2GG/	4r	.
.	8.e-/L 8.f#/L 8.cc/L	.
.	16d/JJ 16g/JJ 16bn/JJ	.
=13	=13	=13
4GG/ 4G/	4d/ 4g/ 4bn/	2r
4GG/ 4G/	4Bn/ 4d/ 4g/	.
4r	4r	4r
4D\	4f#/ 4a/	4dd\
=14	=14	=14
!!linebreak:original
*	*^	*
4AA/	[2g/	4.d\ 4.e-\	4.cc#\
4A\	.	.	.
.	.	8d\	8bn\
4r	4g/]	4c#\	4a/
4D\	4f#/	4d\	4ccn\
=15	=15	=15	=15
4G\	[2g/	4.d\	4.bn\
4GG/	.	.	.
.	.	8c\	8a/
4r	4g/]	4Bn\	4g/
*	*v	*v	*
4GG/	4B-/ 4d/ 4g/	4b-\
=16	=16	=16
4AA/	4A/ 4d/ 4f#/	4a/
4r	4r	8dd\L
.	.	8cc#\J
4AA/	4A/ 4en/ 4g/	4cc#\
4r	4r	8een\L
.	.	8dd\J
=17	=17	=17
4D\	4d/ 4f#/	4dd\
4r	4r	4r
4r	4r	4r
4D\	4d/ 4f#/	4dd\
=18	=18	=18
!!linebreak:original
*	*^	*
4.E-\	[2g/	4.c\	4.cc\
8D\	.	8d\	8b-\
4C/	4g/]	4e-\	4a/
4D\	4f#/	4d\	4cc\
=19	=19	=19	=19
4G\	[2g/	4.d\	4.b-\
4GG/	.	.	.
.	.	8c\	8a/
4r	4g/]	4B-\	4g/
*	*v	*v	*
4G\	4d/ 4g/	4b-\
=20	=20	=20
4C/	4c/ 4e-/	4a/
4r	4r	8b-/L
.	.	8a/J
4C#/	4B-/ 4en/	4g/
4r	4r	8a/L
.	.	8g/J
=21	=21	=21
4D\ 4F#\	4A/ 4d/	4d/
4r	4r	4r
4r	4r	4r
4GG/ 4G/	4B-/ 4d/ 4g/	4g/
=22	=22	=22
2C\ 2G\	2c/ 2e-/ 2g/	4.g/
.	.	8a/
4GG/ 4G/	4B-/ 4d/ 4g/	4b-\
4GG/ 4G/	4B-/ 4d/ 4g/	4g/
=23	=23	=23
!!linebreak:original
*	*	*clefG1
2C\ 2G\	2c/ 2e-/ 2g/	4.b-/
.	.	8cc/
4GG/ 4G/	4B-/ 4d/ 4g/	4dd\
4BB-/	4d/ 4g/	4b-/
=24	=24	=24
4C/	4e-/ 4g-/ 4a/	4cc/
4D\	4f/ 4b-/	4dd\
4E-\	4e-/ 4g-/	4ee-\
4F\	8f/L	8cc/L
.	8e-/J	8dd/J
=25	=25	=25
4BB-/	4d/ 4f/	4dd\
4r	4r	4r
4r	4r	4r
4BB-\ 4B-\	4d/ 4f/ 4b-/	4dd\
=26	=26	=26
2E-\ 2B-\	2e-/ 2g/ 2b-/	4.dd\
.	.	8ee-\
4BB-\ 4B-\	4d/ 4f/ 4b-/	4ff\
4BB-\ 4B-\	4d/ 4f/ 4b-/	4dd\
=27	=27	=27
2E-\ 2B-\	2e-/ 2g/ 2b-/	4.dd\
.	.	8ee-\
4BB-\ 4B-\	4d/ 4f/ 4b-/	4ff\
4C/	4e-/ 4a/	4ee-\
=28	=28	=28
!!linebreak:original
*	*	*clefG2
4D\	4d/ 4g/	4b-\
4r	4r	8cc\L
.	.	8b-\J
4D\	4c/ 4f#/	4a/
4r	4r	8b-/L
.	.	8a/J
=29	=29	=29
2GG/	2B-/ 2g/	4g/
.	.	4r
2G\	4r	2r
.	8.bn/ 8.dd/ 8.ff/	.
.	16cc\JJ 16ee-\JJ	.
=30	=30	=30
4r	4cc\ 4ee-\	1r
4G\	4r	.
2GG/	4r	.
.	8.en/ 8.f/ 8.cc/	.
.	16d/ 16g/ 16bn/	.
=31	=31	=31
4GG/ 4G/	4d/ 4g/ 4bn/	1r
4GG/ 4G/	4Bn/ 4d/ 4g/	.
2r	2r	.
==	==	==
*-	*-	*-
